material/.icons/material/pier.svg

<svg xmlns="http://www.w3.org/2000/svg" viewBox="0 0 24 24"><path d="M20 18c-1.4 0-2.8-.5-4-1.3-2.4 1.7-5.6 1.7-8 0-1.2.8-2.6 1.3-4 1.3H2v2h2c1.4 0 2.7-.4 4-1 2.5 1.3 5.5 1.3 8 0 1.3.6 2.6 1 4 1h2v-2h-2m0-5h-1v3.9c-.7-.1-1.4-.3-2-.7V13h-5v4c-.7 0-1.3-.1-2-.3V13H5v3.9c-.3.1-.7.1-1 .1H3v-4H2v-2h1V9h2v2h5V9h2v2h5V9h2v2h1v2z"/></svg>

<?xml version="1.0" encoding="UTF-8"?><!DOCTYPE svg PUBLIC "-//W3C//DTD SVG 1.1//EN" "http://www.w3.org/Graphics/SVG/1.1/DTD/svg11.dtd"><svg xmlns="http://www.w3.org/2000/svg" xmlns:xlink="http://www.w3.org/1999/xlink" version="1.1" id="mdi-pier" width="24" height="24" viewBox="0 0 24 24"><path d="M20,18C18.6,18 17.2,17.5 16,16.7C13.6,18.4 10.4,18.4 8,16.7C6.8,17.5 5.4,18 4,18H2V20H4C5.4,20 6.7,19.6 8,19C10.5,20.3 13.5,20.3 16,19C17.3,19.6 18.6,20 20,20H22V18H20M20,13H19V16.9C18.3,16.8 17.6,16.6 17,16.2V13H12V17C11.3,17 10.7,16.9 10,16.7V13H5V16.9C4.7,17 4.3,17 4,17H3V13H2V11H3V9H5V11H10V9H12V11H17V9H19V11H20V13Z" /></svg>
